X:1
T:Title
L:1/8
M:4/4
K:Eb
V:1 treble nm="Grand Piano"
V:1
 z4 z2[Q:1/4=100] G2 | AGFG- G2 G2 | AGFG- G2 G2 | AGFG- G2 F2 | E2 GD- D2 F2 | GF=EF- F2 F2 | %6
 GF=EF- F2 F2 | GF=EF- F2 D2 | E2 FG- G2 c2 | dc=Bc- c2 c2 | dc=Bc- c2 e2 | e2 ed- d2 c2 | %12
 B2 =AB- B2 B2 | cB=AB- B2 B2 | cB=AB- B2 _A2 | B2 cG- G2 F2 | E2 FG- G4 | z2 z G- G A2 G | %18
 c3 G- G A2 B | A3 F- F G2 F | B3 F- F G2 A | G3 G- G A2 G | F3 D- D D2 C | B,3 B,- B, C2 D | %24
 C6 z2 |] %25

